X:1
T:Piangete
T:Piangete
T:Giovanni Ghizzolo
C:Giovanni Ghizzolo
%%score [ 1 2 ] { 3 | 4 }
L:1/8
Q:1/4=120
M:4/4
K:F
V:1 treble nm="Soprano" snm="S"
V:2 bass nm="Bass" snm="B"
V:3 treble nm="MusicXML Part"
V:4 bass 
V:1
"^Source: Madrigali et Arie---Libro primo---Venetia---A.Raverij. 1609.""^Editor: André Vierendeels (07/05/07)\nContinuo: André Vierendeels" z4 d4- | %1
w: Pian-|
 d4 G4- | G4 A4 | c6 GF | G4 G2 c2 | c3 c c4- | ^c6 d2 | e8 | d4 z2 AB | c6 BB | A6 A2 | A2 B2 A4 | %12
w: * ge-|* te|oc- chi miei|las- si ein-|ten- ne- ri-|* teil|co-|re di co-|lei che s'in-|du- raal|mio do- lo-|
[M:2/4] G4 :: z2 Bc |[M:4/4] d>"^b"e d>"^b"e f4- | f2 cB c4 | c4 d4- | dcBA G2 A2 | B6 AG | A4 A4 | %20
w: re.|e se|l'ac- * * * *|* que del pian-|to non|_ puo l'af- fet- to suo|mo- ver al-|quan- to|
 z f_ed c3 B | B3 c/d/ B4 | z2 A4 Bc | d/c/B/A/ _e/d/c/B/ f/e/d/c/ d2- | d2 G2 A4 | c4 ^c4 | %26
w: da l'al- ma mia che|lan- * * gue|Oc- chi ver-|sa- * * * * * * * * * * * *|* teo- mai|pian- *|
 c2 AA A4 | G8 :| %28
w: * to di san-|gue.|
V:2
 z8 | z8 | z8"^#" | z8 | z8 | z8 | z8 | z8 | z8 | z8 | z8 | z8 |[M:2/4] z4 :: z4 |[M:4/4] z8"^b" | %15
 z8 | z8 | z8 | z8 | z8 | z8 | z8 | z8 | %23
 z8"^Notes: original keys: Ut 1st, Fa 4rth\n            editorial accidentals above the staff" | %24
"^b" z8 | z8 | z8 | z8 :| %28
V:3
 [DGB]8 | [GB]4 [CG]4 | [DB]2 [CA]2 [D^FA]4 | [EA]4 [EGc]4 | [EGc]8 | [FAc]4 A2 E2 | [EA]4 [DA]4 | %7
 [=B,E]4 [^CA]4 | [D^FA]8 | [EA]2 D2 [Gc]2 B2 | [FA]4 [DF]2 [FA]2 | [EA]2 [GB]2 G2 ^F2 | %12
[M:2/4] [DGB]4 :: [GB]4 |[M:4/4] [DF]2 G2 [FA]2 G2 | [FA]8 | [Ac]4 [Gd]4 | [D^F]8 | [DGB]8 | %19
 [^FA]8 | F2 C2 G2 F2 | [DFB]8 | [FAc]4 [CG]4 | F2 G2 [DFB]4 | [CGB]2 [CG]2 [^FA]4 | %25
 [EG]2 [DG]2 [EA]2 G2 | [DF]4 [A,^F]4 | [=B,DG]8 :| %28
V:4
 G,8 | _E,8 | D,4"^#" D,4 | A,,4 C,4 | C,8 | F,4 F,2 G,2 | A,4 ^F,4 | ^G,4 A,4 | D,8 | %9
 A,,2 B,,2 C,4- | C,4 =B,,4 | ^C,4 D,4 |[M:2/4] G,,4 :: z2 G,F, |[M:4/4] B,,2 C,2 D,2"^b" E,2 | %15
 F,8 | F,,4 B,,2 A,,G,, | D,8- | D,8 | D,8 | z B,,C,D, _E,2 F,2 | B,,4 B,,4 | F,4 _E,4 | %23
 D,2 C,2 B,,4 |"^b" E,4 D,4 | C,2 B,,2 A,,4 | D,4 D,,4 | G,,8 :| %28

